X: 6
T: MacArthur Road
R: reel
M: 4/4
L: 1/8
K: Emaj
K:Amaj
|:EC (3CCC EFAB|cBAc BAFA|B3c BAFA|dFcF BAFA|
EC (3CCC EFAB|cBAc BAFA|B3c BAFE|1 FABc A2z2:|2 FABc ABcd||
eA(3AAA eAfA|eAcA BAFA|B3c BAFA|dAcA BAFA|
eA(3AAA eAfA|eAcA BAFA|B3c BAFE|FABc ABcd|
eA(3AAA eAfA|eAcA BAFA|B3c BAFA|dAcA BAFA|
EC(3CCC EFAB|cBAc BAFA|B3c BAFE|FABc A2z2|


Tune 2221	Setting 29441

